!!!!SEGMENT: Mou2014-Missus_est_angelus_Gabriel.krn
!!!id: Mou2014
!!!AGN: Motet
!!!SCT: Lowinsky (1968)
!!!voices: 5
!!!COM: Jean Mouton?
!!!OTL: Missus est angelus Gabriel
**kern	**kern	**kern	**kern	**kern
*part5	*part4	*part3	*part2	*part1
*staff5	*staff4	*staff3	*staff2	*staff1
*I"Bassus	*I"Tenor	*I"Altus	*I"Superius II	*I"Superius I
*I'B	*I'T	*I'A	*I'S. II	*I'S. I
*clefF4	*clefGv2	*clefG2	*clefG2	*clefG2
*k[]	*k[]	*k[]	*k[]	*k[]
*C:	*C:	*C:	*C:	*C:
*M2/1	*M2/1	*M2/1	*M2/1	*M2/1
*met(C|)	*met(C|)	*met(C|)	*met(C|)	*met(C|)
!!section: Prima pars: Missus est angelus Gabriel
!!!OMD: Prima pars: Missus est angelus Gabriel
=1	=1	=1	=1	=1
1r	1e	[0A	[0a	0r
1A	[1c	.	.	.
=2	=2	=2	=2	=2
1F	2c]	0A]	0a]	1a
.	4B	.	.	.
.	4A	.	.	.
1D	[1d	.	.	1f
=3	=3	=3	=3	=3
1G	2d]	0B	0g	1d
.	4c	.	.	.
.	4B	.	.	.
2E	2.e	.	.	1g
2E	.	.	.	.
.	4d	.	.	.
=4	=4	=4	=4	=4
2.A	2.c	0c	0a	2e
.	.	.	.	2e
4G	4B	.	.	.
2F	[1A	.	.	2.a
2E	.	.	.	.
.	.	.	.	4g
=5	=5	=5	=5	=5
1D	1A]	0d	1a	2f
.	.	.	.	2e
2.G	2.B	.	1r	2d
.	.	.	.	[2dd
4F	4c	.	.	.
=6	=6	=6	=6	=6
0D	1d	0f	1a	4dd]
.	.	.	.	4ee
.	.	.	.	1ff
.	2.A	.	2a	.
.	.	.	[2a	4ee
.	4B	.	.	4dd
=7	=7	=7	=7	=7
2.A	1c	0e	2a]	2cc
.	.	.	2a	2.ee
4G	.	.	.	.
2E	2B	.	2g	.
.	.	.	.	4dd
[2A	[2c	.	2a	4cc
.	.	.	.	4b
=8	=8	=8	=8	=8
2A]	4c]	0e	2cc	2a
.	4A	.	.	.
2G	2B	.	2b	1dd
1A	1c	.	2.a	.
.	.	.	.	2cc
.	.	.	4g	.
=9	=9	=9	=9	=9
1D	2A	[0d	4a	1dd
.	.	.	4g	.
.	1B-X	.	4f	.
.	.	.	4e	.
1G	.	.	2d	1dd
.	4A	.	[2g	.
.	4G	.	.	.
=10	=10	=10	=10	=10
1D	1A	1d]	2g]	1dd
.	.	.	2f#i	.
1G	2r	1B	[1g	1dd
.	2G	.	.	.
=11	=11	=11	=11	=11
[0C	2G	1.c	0g]	1.ee
.	2G	.	.	.
.	2.c	.	.	.
.	.	2d	.	2dd
.	4B	.	.	.
=12	=12	=12	=12	=12
1C]	2A	1e	1r	2cc
.	2G	.	.	2b
1D	1F	1f	1d	2.a
.	.	.	.	4b
=13	=13	=13	=13	=13
1C	1E	1g	1e	4cc
.	.	.	.	4dd
.	.	.	.	2.cc
2.F	1A	[1a	1c	.
.	.	.	.	4b
.	.	.	.	4a
4E	.	.	.	4g
=14	=14	=14	=14	=14
2D	1A	1a]	0d	2f
2C	.	.	.	4e
.	.	.	.	4d
1BB	1B	1g	.	1dd
=15	=15	=15	=15	=15
1AA	1c	1a	1e	1cc
1D	2.A	1f	2d	1r
.	.	.	2a	.
.	4B	.	.	.
=16	=16	=16	=16	=16
2r	0c	0e	2g	1ee
2C	.	.	2b	.
2C	.	.	4cc	1ee
.	.	.	4b	.
2C	.	.	4a	.
.	.	.	4g	.
=17	=17	=17	=17	=17
1.D	0A	[0d	2.f	2.ff
.	.	.	4g	4ee
.	.	.	4a	2dd
.	.	.	4b-i	.
2F	.	.	[2a	2cc
=18	=18	=18	=18	=18
1G	1r	0d]	4a]	1b
.	.	.	4g	.
.	.	.	1g	.
1D	2r	.	.	1a
.	2d	.	2f#i	.
=19	=19	=19	=19	=19
1G	2d	0r	1g	1b
.	2e	.	.	.
[1F	2.f	.	1c	2a
.	.	.	.	[2cc
.	4e	.	.	.
=20	=20	=20	=20	=20
1F]	2d	0r	1r	4cc]
.	.	.	.	4b
.	2c	.	.	1a
1G	1B	.	[1d	.
.	.	.	.	2g
=21	=21	=21	=21	=21
2.D	2A	[0f	1d]	1.a
.	1d	.	.	.
4E	.	.	.	.
1F	.	.	[1a	.
.	2c	.	.	[2ff
=22	=22	=22	=22	=22
1D	1d	1f]	2a]	4ff]
.	.	.	.	4ee
.	.	.	2a	1dd
2r	1A	1e	1a	.
2A	.	.	.	2cc#i
=23	=23	=23	=23	=23
2.B-i	0r	0d	1f	1dd
4A	.	.	.	.
2G	.	.	2b-i	1r
[2F	.	.	[2a	.
=24	=24	=24	=24	=24
2F]	1A	0c	2a]	1r
4E	.	.	4g	.
4D	.	.	4f	.
1E	1G	.	1g	1ee
=25	=25	=25	=25	=25
1.D	2A	1d	2.f	2.ff
.	2.d	.	.	.
.	.	.	4g	4ee
.	.	[1f	[1a	2dd
.	4c	.	.	.
[2F	[2A	.	.	2cc
=26	=26	=26	=26	=26
4F]	4A]	2f]	1a]	2dd
8EL	4B	.	.	.
8DJ	.	.	.	.
2.C	4c	2e	.	1ee
.	4d	.	.	.
.	1e	[1g	[1g	.
4D	.	.	.	.
4E	.	.	.	4dd
4F	.	.	.	4cc
=27	=27	=27	=27	=27
2G	1d	2g]	2g]	2b
2D	.	2f	2a	2.a
1G	1B	2e	1b	.
.	.	.	.	4g
.	.	2d	.	[2g
=28	=28	=28	=28	=28
1A	1c	1c	1a	2g]
.	.	.	.	2f#i
2G	2d	2B	[1dd	2g
2F	[2f	2c	.	[2a
=29	=29	=29	=29	=29
1D	4f]	1d	1dd]	4a]
.	4e	.	.	4g
.	4d	.	.	4f
.	4c	.	.	4e
1r	1d	1f	[1a	2d
.	.	.	.	[2dd
=30	=30	=30	=30	=30
2r	1A	1e	1a]	2dd]
2A	.	.	.	2cc#i
2.B-i	1r	[1d	1f	[1dd
4A	.	.	.	.
=31	=31	=31	=31	=31
2G	1r	1d]	2g	1dd]
2F	.	.	1a	.
1E	1G	1c	.	1r
.	.	.	[2g	.
=32	=32	=32	=32	=32
1D	1A	1d	2g]	1a
.	.	.	2f#i	.
1r	[1G	1B	[1g	1b
=33	=33	=33	=33	=33
1C	1G]	1.c	1g]	2g
.	.	.	.	1cc
1F	1A	.	1r	.
.	.	2d	.	4b
.	.	.	.	4a
=34	=34	=34	=34	=34
2.E	1.B	0e	2.b	1.g
4F	.	.	4g	.
4G	.	.	4b	.
4E	.	.	4g	.
[2A	2A	.	[2cc	4f
.	.	.	.	4e
=35	=35	=35	=35	=35
4A]	1c	0A	4cc]	0a
4G	.	.	4b	.
4F	.	.	4a	.
4E	.	.	4g	.
2D	2d	.	4f	.
.	.	.	4e	.
2F	4c	.	2a	.
.	4d	.	.	.
=36	=36	=36	=36	=36
2.E	2e	0r	2g	1r
.	2c	.	1a	.
4D	.	.	.	.
1E	1B	.	.	1e
.	.	.	2g#i	.
=37	=37	=37	=37	=37
1AA	0A	0c	2a	1.e
.	.	.	1cc	.
2r	.	.	.	.
2A	.	.	4b	2f
.	.	.	4a	.
=38	=38	=38	=38	=38
2G	1r	0d	2b	2g
2F	.	.	2a	1a
1B-i	1G	.	1dd	.
.	.	.	.	2g
=39	=39	=39	=39	=39
1A	1c	1e	1cc	1a
1G	[1d	1g	1r	1b
=40	=40	=40	=40	=40
1D	2d]	0f	0r	2a
.	2A	.	.	2.dd
1D	2.d	.	.	.
.	.	.	.	4cc
.	.	.	.	4b
.	4c	.	.	4a
=41	=41	=41	=41	=41
0E	2B	[0e	1r	2g
.	2A	.	.	2.a
.	1B	.	1b	.
.	.	.	.	4g#i
.	.	.	.	4g#i
.	.	.	.	4f#i
=42	=42	=42	=42	=42
1r	1A	1e]	1cc	1a
1G	1r	1d	1b	1r
=43	=43	=43	=43	=43
1F	1c	0f	1a	1r
1F	1c	.	1a	1cc
=44	=44	=44	=44	=44
1C	1c	1e	1g	1cc
1r	1G	[1d	1g	1b
=45	=45	=45	=45	=45
1D	1r	1d]	1.f	1a
1F	1A	1c	.	1a
.	.	.	2e	.
=46	=46	=46	=46	=46
0G	1.d	0B	2d	1g
.	.	.	2dd	.
.	.	.	2b	2g
.	2d	.	[2dd	4d
.	.	.	.	4e
=47	=47	=47	=47	=47
1D	1d	0A	2dd]	4f
.	.	.	.	4g
.	.	.	4cc	1a
.	.	.	4b	.
1F	[1c	.	2.a	.
.	.	.	.	4g
.	.	.	4b	4f
=48	=48	=48	=48	=48
1C	2c]	1r	4cc	1e
.	.	.	4dd	.
.	2G	.	1cc	.
1F	2A	[1c	.	1a
.	2F	.	4b	.
.	.	.	4a	.
=49	=49	=49	=49	=49
1E	1G	1c]	1g	0r
1D	1A	1d	2f	.
.	.	.	[2a	.
=50	=50	=50	=50	=50
0D	2.F	0f	4a]	1a
.	.	.	4g	.
.	.	.	4f	.
.	4G	.	4e	.
.	4A	.	1d	1a
.	4B-i	.	.	.
.	[2A	.	.	.
=51	=51	=51	=51	=51
0AA	2A]	1e	1r	0cc
.	4G	.	.	.
.	4F	.	.	.
.	1E	[1e	[1a	.
=52	=52	=52	=52	=52
1AA	2r	1e]	1a]	1cc
.	1A	.	.	.
1D	.	1d	1a	1dd
.	2A	.	.	.
=53	=53	=53	=53	=53
1D	1A	0d	1f	[0dd
1G	1B	.	1g	.
=54	=54	=54	=54	=54
2.D	2A	0r	1a	0dd]
.	1d	.	.	.
4E	.	.	.	.
4F	.	.	1r	.
4D	.	.	.	.
[2G	2d	.	.	.
=55	=55	=55	=55	=55
4G]	1B	0g	1r	0r
4F	.	.	.	.
4E	.	.	.	.
4D	.	.	.	.
1E	1c	.	1e	.
=56	=56	=56	=56	=56
1D	1d	1.f	1a	1dd
1r	1A	.	1a	1cc
.	.	2e	.	.
=57	=57	=57	=57	=57
1D	1.d	1f	1a	1dd
2.G	.	[1g	1d	1dd
.	2B	.	.	.
4F	.	.	.	.
=58	=58	=58	=58	=58
2E	2c	2g]	1r	2ee
2D	2.d	2f	.	2.ff
1r	.	[1d	1f	.
.	4c	.	.	4ee
.	4B	.	.	4dd
.	4A	.	.	4cc
=59	=59	=59	=59	=59
1D	2B	1d]	1f	1dd
.	1A	.	.	.
[1AA	.	[1a	2e	2.cc
.	2G	.	[2e	.
.	.	.	.	4b
=60	=60	=60	=60	=60
2AA]	1F	1a]	2e]	2cc
2BB	.	.	2d	2dd
1C	1E	1g	1e	2cc
.	.	.	.	2b
=61	=61	=61	=61	=61
1D	2.F	1f	2.A	1.a
.	4G	.	4B	.
1r	2A	2e	2c	.
.	2B-i	2d	2d	2g
=62	=62	=62	=62	=62
2r	1A	1c	2e	2a
2A	.	.	2f	2cc
2G	2B	[1d	2g	2b
2F	2c	.	2a	[2a
=63	=63	=63	=63	=63
0D	2d	1d]	2.f	4a]
.	.	.	.	4g
.	2A	.	.	4f
.	.	.	4g	4e
.	2.F	1f	1a	2d
.	.	.	.	[2dd
.	4G	.	.	.
=64	=64	=64	=64	=64
0AA	0A	0e	1r	2dd]
.	.	.	.	4cc#i
.	.	.	.	4b
.	.	.	[1a	1cc#i
=65	=65	=65	=65	=65
1.D	1r	0d	2a]	1dd
.	.	.	1f	.
.	[1A	.	.	1r
4C	.	.	4e	.
4BB	.	.	4d	.
=66	=66	=66	=66	=66
2AA	1A]	0r	2e	0a
2D	.	.	2f	.
2C	1A	.	2e	.
2D	.	.	[2f	.
=67	=67	=67	=67	=67
1r	1d	0f	2f]	1a
.	.	.	4e	.
.	.	.	4d	.
1D	1d	.	1a	[1dd
=68	=68	=68	=68	=68
1G	1B	0d	0g	1dd]
1B	1G	.	.	1dd
=69	=69	=69	=69	=69
0A	1.c	0e	0a	1cc
.	.	.	.	1cc
.	4B	.	.	.
.	4A	.	.	.
=70	=70	=70	=70	=70
1D	1A	[0d	1f	2.dd
.	.	.	.	4cc
2G	1r	.	2g	2b
2F	.	.	[2a	2a
=71	=71	=71	=71	=71
1G	1r	1d]	4a]	1b
.	.	.	4g	.
.	.	.	1g	.
1A	2r	1c	.	1cc
.	2A	.	2f#i	.
=72	=72	=72	=72	=72
2.G	1B	1d	1g	2b
.	.	.	.	2.dd
4F	.	.	.	.
1D	2A	1f	[1a	.
.	.	.	.	4cc
.	2d	.	.	4a
.	.	.	.	4b
=73	=73	=73	=73	=73
1A	2.c	1e	1a]	4cc
.	.	.	.	4dd
.	.	.	.	2.cc
.	4B	.	.	.
2.F	1A	[1a	1cc	.
.	.	.	.	4b
.	.	.	.	4a
4E	.	.	.	4g
=74	=74	=74	=74	=74
1D	1d	2a]	2dd	4f
.	.	.	.	4d
.	.	2f	2a	2.dd
2r	1G	[1g	1b	.
.	.	.	.	4cc
[2G	.	.	.	4b
.	.	.	.	4a
=75	=75	=75	=75	=75
4G]	1d	2g]	1dd	2b
4F	.	.	.	.
2D	.	2f	.	1a
2A	1r	2e	2cc	.
2B	.	2d	[2dd	2g
=76	=76	=76	=76	=76
2.A	0r	0e	2dd]	0a
.	.	.	4cc#i	.
4G	.	.	4b	.
1A	.	.	1cc#i	.
=77	=77	=77	=77	=77
1D	1A	[0d	1dd	1f
2.G	2B	.	1b	2r
.	2G	.	.	2d
4G	.	.	.	.
=78	=78	=78	=78	=78
2D	1A	0d_	1a	1f
2D	.	.	.	.
2G	1B	.	1r	1g
2G	.	.	.	.
=79	=79	=79	=79	=79
2D	2A	0d]	0r	1a
4D	2.A	.	.	.
4C	.	.	.	.
2BB	.	.	.	1dd
.	4F	.	.	.
2BB	2G	.	.	.
=80	=80	=80	=80	=80
1AA	2.A	0r	2r	2.cc
.	.	.	2e	.
.	4B	.	.	8bL
.	.	.	.	8aJ
1r	4c	.	4e	1g
.	4d	.	4f	.
.	[2e	.	4g	.
.	.	.	4a	.
=81	=81	=81	=81	=81
0r	4e]	0r	2b	2r
.	4d	.	.	.
.	2f	.	2a	2a
.	2e	.	2g	2b
.	2c	.	[2a	2cc
=82	=82	=82	=82	=82
1r	1B	0d	2a]	2dd
.	.	.	2g	1dd
1D	1A	.	[1a	.
.	.	.	.	4cc
.	.	.	.	4b
=83	=83	=83	=83	=83
1AA	0A	1e	1a]	1cc
2.D	.	[1f	1r	2.dd
4E	.	.	.	4cc
=84	=84	=84	=84	=84
4F	0r	1f]	2.A	2a
4G	.	.	.	.
2.A	.	.	.	2.cc
.	.	.	4B	.
.	.	2e	2.c	.
4G	.	.	.	4b
2B	.	2d	.	2g
.	.	.	4d	.
=85	=85	=85	=85	=85
2.A	0r	1.c	2.e	4a
.	.	.	.	4b
.	.	.	.	4cc
8GL	.	.	4f	4dd
8FJ	.	.	.	.
1E	.	.	1g	4ee
.	.	.	.	4ff
.	.	2B	.	4gg
.	.	.	.	4ee
=86	=86	=86	=86	=86
1D	0r	1.d	2.a	2.ff
.	.	.	4g	4ee
1r	.	.	4f	4dd
.	.	.	4e	4cc
.	.	2c	[2g	[2ee
=87	=87	=87	=87	=87
0r	0r	1B	4g]	4ee]
.	.	.	4f	4dd
.	.	.	4e	1dd
.	.	.	4d	.
.	.	1A	1e	.
.	.	.	.	2cc#i
=88	=88	=88	=88	=88
0D	1A	0d	2d	1dd
.	.	.	1f	.
.	[1A	.	.	2.a
.	.	.	4e	.
.	.	.	4d	4b
=89	=89	=89	=89	=89
1.AA	2A]	1.c	1e	4cc
.	.	.	.	4dd
.	2G	.	.	1ee
.	1F	.	1a	.
2BB	.	2d	.	2dd
=90	=90	=90	=90	=90
1C	1E	1e	1g	2cc
.	.	.	.	2b
1D	1A	1f	1r	1a
=91	=91	=91	=91	=91
1E	2c	1g	1e	1g
.	2B	.	.	.
1F	1A	2f	1a	1cc
.	.	2e	.	.
=92	=92	=92	=92	=92
1G	1B	1d	1g	2b
.	.	.	.	1g
1A	2c	1c	1cc	.
.	2A	.	.	2f#i
=93	=93	=93	=93	=93
1G	4B	1d	1b	1g
.	4c	.	.	.
.	4d	.	.	.
.	4B	.	.	.
2F	2c	1f	2a	1r
2D	2d	.	[2a	.
=94	=94	=94	=94	=94
1E	1B	0e	2a]	1b
.	.	.	2g#i	.
1AA	[1A	.	1a	1cc
=95	=95	=95	=95	=95
0D	1A]	[0dl	2.f	2dd
.	.	.	.	2.ff
.	.	.	4g	.
.	1F	.	2a	.
.	.	.	.	4ee
.	.	.	[2b-i	[2dd
=96	=96	=96	=96	=96
0GG	0G	0d_	4b-]	4dd]
.	.	.	4a	4cc
.	.	.	4g	4b
.	.	.	4f	4a
.	.	.	1g	1b
=	=	=	=	=
00D	00A	00d]	00f	00a
=||	=||	=||	=||	=||
*M2/1	*M2/1	*M2/1	*M2/1	*M2/1
*met(C|)	*met(C|)	*met(C|)	*met(C|)	*met(C|)
!!section: Secunda pars: Hic erit magnus
!!!OMD: Secunda pars: Hic erit magnus
1D	1F	[0A	1d	1a
1D	1F	.	1d	1a
=97	=97	=97	=97	=97
1AA	1E	0A]	1e	1cc
1D	1F	.	1d	1dd
=98	=98	=98	=98	=98
1GG	4G	0B	2d	1dd
.	4A	.	.	.
.	4B	.	2.g	.
.	4c	.	.	.
1G	2d	.	.	1r
.	.	.	4f	.
.	[2e	.	2g	.
=99	=99	=99	=99	=99
1A	4e]	0c	2.e	0cc
.	4d	.	.	.
.	4c	.	.	.
.	4B	.	4d	.
1A	1A	.	2e	.
.	.	.	2f	.
=100	=100	=100	=100	=100
1G	0B	0d	1g	1b
1G	.	.	1g	1b
=101	=101	=101	=101	=101
1F	1.c	0f	1a	1a
1F	.	.	1a	1cc
.	2c	.	.	.
=102	=102	=102	=102	=102
1.C	1c	0e	0g	1.cc
.	1G	.	.	.
2C	.	.	.	2cc
=103	=103	=103	=103	=103
1C	1.E	0e	1g	1cc
1C	.	.	[1g	2cc
.	2F	.	.	[2cc
=104	=104	=104	=104	=104
0GG	0G	[0d	2g]	2cc]
.	.	.	2g	4b
.	.	.	.	4a
.	.	.	[1g	2b
.	.	.	.	[2dd
=105	=105	=105	=105	=105
0G	1r	1d]	1g]	4dd]
.	.	.	.	4cc
.	.	.	.	4b
.	.	.	.	4a
.	1d	1B	1g	1b
=106	=106	=106	=106	=106
1A	2c	1.c	1e	0a
.	2.A	.	.	.
1F	.	.	1f	.
.	4G	.	.	.
.	2A	2d	.	.
=107	=107	=107	=107	=107
1E	2B	1e	1g	1r
.	2c	.	.	.
1D	1d	1f	2r	1dd
.	.	.	2a	.
=108	=108	=108	=108	=108
0r	1c	1g	2cc	1ee
.	.	.	2cc	.
.	2A	[1a	4cc	2ee
.	.	.	4b	.
.	[2d	.	4a	[2ff
.	.	.	4g	.
=109	=109	=109	=109	=109
0r	4d]	1a]	2f	4ff]
.	4c	.	.	4ee
.	2A	.	2e	2cc
.	2B	1g	2d	2dd
.	2c	.	[2c	[2ee
=110	=110	=110	=110	=110
0r	1A	1a	4c]	4ee]
.	.	.	4d	4dd
.	.	.	2e	4cc
.	.	.	.	4b
.	1d	1f	2f	2.a
.	.	.	[2a	.
.	.	.	.	4b
=111	=111	=111	=111	=111
0r	2c	0e	2a]	2cc
.	2B	.	2g	1dd
.	1A	.	[1a	.
.	.	.	.	2cc#i
=112	=112	=112	=112	=112
0D	0A	[0d	1a]	2dd
.	.	.	.	2a
.	.	.	1f	2a
.	.	.	.	2a
=113	=113	=113	=113	=113
0G	0r	0d]	2.g	2.b-X
.	.	.	4a	4a
.	.	.	4b	2g
.	.	.	4cc	.
.	.	.	[2dd	2f
=114	=114	=114	=114	=114
1A	1r	0r	2dd]	1e
.	.	.	2cc	.
[1B	[1G	.	2dd	1d
.	.	.	[2d	.
=115	=115	=115	=115	=115
2B]	2G]	0r	2d]	2g
2A	2A	.	2c	2f
1G	1B-X	.	2d	1g
.	.	.	2e	.
=116	=116	=116	=116	=116
1.F	0c	[0f	2f	1a
.	.	.	1a	.
.	.	.	.	1cc
2E	.	.	2g	.
=117	=117	=117	=117	=117
1D	1F	1f]	2a	1dd
.	.	.	2b	.
1C	2G	1e	1cc	1ee
.	[2A	.	.	.
=118	=118	=118	=118	=118
1D	2A]	0d	0r	1a
.	4G	.	.	.
.	4F	.	.	.
1BB	1G	.	.	1b
=119	=119	=119	=119	=119
1AA	0A	0c	1.e	0cc
1A	.	.	.	.
.	.	.	2f	.
=120	=120	=120	=120	=120
1G	1B	1d	1g	1b
1F	[1c	[1f	2a	[1a
.	.	.	2b	.
=121	=121	=121	=121	=121
1A	1c]	2f]	1cc	1a]
.	.	2e	.	.
1G	1d	[1g	1b	2r
.	.	.	.	2d
=122	=122	=122	=122	=122
1.c	0r	2g]	2g	2e
.	.	2f	2.a	2f
.	.	2e	.	1g
.	.	.	4g	.
2B	.	2d	[2g	.
=123	=123	=123	=123	=123
1A	1r	1c	2g]	1a
.	.	.	2f#i	.
[1G	1d	2B	[1g	[1b
.	.	2c	.	.
=124	=124	=124	=124	=124
1G]	1B	1d	1g]	1b]
2.F	[1c	1f	1r	1a
8EL	.	.	.	.
8DJ	.	.	.	.
=125	=125	=125	=125	=125
1C	1c]	1e	1.g	1cc
1r	2G	[1d	.	2b
.	2F	.	2a	[2a
=126	=126	=126	=126	=126
0r	1G	1d]	1b	4a]
.	.	.	.	4g
.	.	.	.	1g
.	1A	1c	1cc	.
.	.	.	.	2f#i
=127	=127	=127	=127	=127
0GG	0G	1d	2b	1g
.	.	.	2.dd	.
.	.	1B	.	1d
.	.	.	4cc	.
.	.	.	4b	.
.	.	.	4a	.
=128	=128	=128	=128	=128
0C	1G	1.c	1g	2.e
.	.	.	.	4f
.	1G	.	2e	1g
.	.	2d	[2g	.
=129	=129	=129	=129	=129
1C	2.c	0e	4g]	2r
.	.	.	4f	.
.	.	.	4e	1cc
.	4B	.	4d	.
1C	2A	.	2c	.
.	2G	.	2g	2b
=130	=130	=130	=130	=130
0D	0d	0A	2f	2a
.	.	.	2g	2g
.	.	.	2.a	2.f
.	.	.	4b	8eL
.	.	.	.	8dJ
=131	=131	=131	=131	=131
1C	1G	0r	1.cc	2e
.	.	.	.	2g
[1F	1r	.	.	[1a
.	.	.	2b	.
=132	=132	=132	=132	=132
2F]	0r	0c	2a	2a]
2G	.	.	1g	2b
1A	.	.	.	[1cc
.	.	.	2f#i	.
=133	=133	=133	=133	=133
0G	1r	0d	0g	2cc]
.	.	.	.	4b
.	.	.	.	4a
.	[1G	.	.	1b
=134	=134	=134	=134	=134
1C	2G]	1e	0r	1cc
.	2A	.	.	.
1E	2G	1g	.	1r
.	[2c	.	.	.
=135	=135	=135	=135	=135
0D	2c]	0f	0r	1dd
.	4B	.	.	.
.	4A	.	.	.
.	1B	.	.	1dd
=136	=136	=136	=136	=136
[0C	1c	[0e	0g	1.ee
.	[1G	.	.	.
.	.	.	.	2dd
=137	=137	=137	=137	=137
1C]	2G]	1e]	1g	1cc
.	2A	.	.	.
1G	2B	1d	1g	1b
.	2G	.	.	.
=138	=138	=138	=138	=138
1.F	1.A	0f	1.c	0a
4E	4G	.	2d	.
4D	4F	.	.	.
=139	=139	=139	=139	=139
1C	2G	1e	2e	1r
.	2.A	.	2c	.
[1D	.	[1d	2.f	1a
.	4G	.	.	.
.	4F	.	.	.
.	4E	.	4g	.
=140	=140	=140	=140	=140
2D]	2D	1d]	2a	2f
4C	1G	.	2b	2g
4BB	.	.	.	.
1AA	.	1c	2cc	1a
.	2F#i	.	2a	.
=141	=141	=141	=141	=141
0GG	1G	0B	2b	1d
.	.	.	2cc	.
.	1d	.	2dd	1g
.	.	.	[2g	.
=142	=142	=142	=142	=142
0D	0d	0A	2g]	1.a
.	.	.	4f	.
.	.	.	4e	.
.	.	.	1f	.
.	.	.	.	4g
.	.	.	.	4f
=143	=143	=143	=143	=143
0C	1G	1r	1g	2e
.	.	.	.	2.g
.	1r	[1c	2e	.
.	.	.	.	4f
.	.	.	[2cc	4e
.	.	.	.	4d
=144	=144	=144	=144	=144
0r	1A	1c]	4cc]	1e
.	.	.	4b	.
.	.	.	1a	.
.	1B	1d	.	2r
.	.	.	2g	[2d
=145	=145	=145	=145	=145
1D	1A	0f	1a	4d]
.	.	.	.	4e
.	.	.	.	4f
.	.	.	.	4g
4D	1d	.	2r	2.a
4E	.	.	.	.
4F	.	.	[2a	.
4G	.	.	.	4b
=146	=146	=146	=146	=146
2.A	1c	1e	2a]	4cc
.	.	.	.	4dd
.	.	.	2a	2.ee
4B	.	.	.	.
2c	1r	[1e	1g	.
.	.	.	.	4dd
2B	.	.	.	[2dd
=147	=147	=147	=147	=147
1A	2r	1e]	1a	2dd]
.	1A	.	.	2cc#i
2.D	.	1d	1f	[1dd
.	2B	.	.	.
4E	.	.	.	.
=148	=148	=148	=148	=148
2F	2A	0d	1r	1dd]
2G	2.B	.	.	.
2D	.	.	1f	1r
.	4A	.	.	.
2F	[2d	.	.	.
=149	=149	=149	=149	=149
1E	2d]	0r	1g	1r
.	2c#i	.	.	.
1D	1d	.	1f	1a
=150	=150	=150	=150	=150
2.C	1.G	0g	1e	1cc
4BB	.	.	.	.
1GG	.	.	2d	1b
.	[2D	.	[2dd	.
=151	=151	=151	=151	=151
2D	2D]	1.f	2dd]	1a
2AA	2E	.	2cc	.
2D	2F	.	2dd	1r
2C	2G	2e	[2ee	.
=152	=152	=152	=152	=152
1D	2D	1f	4ee]	1d
.	.	.	4dd	.
.	2F	.	1dd	.
1r	1E	[1g	.	1e
.	.	.	2cc#i	.
=153	=153	=153	=153	=153
0GG	0G	2g]	1dd	1d
.	.	2f	.	.
.	.	[1d	1b	[1dd
=154	=154	=154	=154	=154
1.D	2.F	1d]	1a	2dd]
.	.	.	.	1ff
.	4G	.	.	.
.	4A	[1a	2d	.
.	4B	.	.	.
2C	2c	.	2e	2ee
=155	=155	=155	=155	=155
1D	1A	1a]	1f	2dd
.	.	.	.	2cc
1E	1e	1g	1g	1b
=156	=156	=156	=156	=156
1F	1A	1f	1a	2a
.	.	.	.	1cc
1G	1r	2e	1g	.
.	.	2d	.	2b
=157	=157	=157	=157	=157
1A	0r	1c	1e	2a
.	.	.	.	2g
[1B-i	.	[1d	2.d	1f
.	.	.	4e	.
=158	=158	=158	=158	=158
2B-]	0r	1d]	2f	1b-i
4A	.	.	2g	.
4G	.	.	.	.
2F	.	1f	4a	1a
.	.	.	4b	.
[2A	.	.	4cc	.
.	.	.	4dd	.
=159	=159	=159	=159	=159
2A]	0r	0e	2cc	1r
2G	.	.	1dd	.
1A	.	.	.	2.a
.	.	.	2cc#i	.
.	.	.	.	4g
=160	=160	=160	=160	=160
2.B-i	0r	0d	2.dd	4f
.	.	.	.	4e
.	.	.	.	2d
4A	.	.	4cc	.
2G	.	.	2b	4dd
.	.	.	.	4ee
2F	.	.	2a	2ff
=161	=161	=161	=161	=161
1G	1r	0r	2g	2ee
.	.	.	2f	1dd
1A	2r	.	1e	.
.	2A	.	.	2cc#i
=162	=162	=162	=162	=162
1D	2A	0f	0d	2dd
.	2A	.	.	2a
1r	2.d	.	.	2a
.	.	.	.	2a
.	4c	.	.	.
=163	=163	=163	=163	=163
1.G	2B	0d	0r	2.dd
.	2A	.	.	.
.	.	.	.	4cc
.	2G	.	.	2b
2A	2F	.	.	[2a
=164	=164	=164	=164	=164
1B	1E	0e	0r	2a]
.	.	.	.	2g
1c	1A	.	.	1a
=165	=165	=165	=165	=165
2.d	2.B	[0d	0r	1f
4c	4A	.	.	.
2B	2G	.	.	2g
2A	2F	.	.	2a
=166	=166	=166	=166	=166
2G	2B-i	1d]	1r	2d
2F	1A	.	.	2dd
1E	.	1c	1g	2.ee
.	2G	.	.	.
.	.	.	.	8ddL
.	.	.	.	8eeJ
=167	=167	=167	=167	=167
0D	1A	1d	2.f	2ff
.	.	.	.	2.dd
.	.	.	4g	.
.	1d	1f	2a	.
.	.	.	.	8ccL
.	.	.	.	8bJ
.	.	.	2f	2a
=168	=168	=168	=168	=168
1E	2B	1e	2g	1g
.	2.c	.	1e	.
[1F	.	[1a	.	1r
.	4B	.	.	.
.	4A	.	4d	.
.	4G	.	4c	.
=169	=169	=169	=169	=169
1F]	1A	2a]	1d	0r
.	.	2f	.	.
[1E	2B	[1g	2.e	.
.	2G	.	.	.
.	.	.	4f	.
=170	=170	=170	=170	=170
2E]	1c	2g]	2g	1g
2F	.	2f	2a	.
1G	1B	2e	1b	1g
.	.	2d	.	.
=171	=171	=171	=171	=171
0C	1G	0e	2.cc	1.g
.	.	.	4dd	.
.	1c	.	2ee	.
.	.	.	[2cc	2g
=172	=172	=172	=172	=172
0G	1r	[0d	2cc]	1g
.	.	.	4b	.
.	.	.	4a	.
.	1G	.	1b	1g
=173	=173	=173	=173	=173
[0D	1A	0d_	0a	1.f
.	1A	.	.	.
.	.	.	.	2f
=174	=174	=174	=174	=174
0D]	2.d	0d]	1a	1f
.	4c	.	.	.
.	2B	.	2.dd	2r
.	2A	.	.	2a
.	.	.	4cc	.
=175	=175	=175	=175	=175
0r	2G	0r	2b	2.dd
.	1d	.	2a	.
.	.	.	.	4cc
.	.	.	2dd	2b
.	2A	.	[2ee	2a
=176	=176	=176	=176	=176
0r	2c	0r	4ee]	2g
.	.	.	4dd	.
.	2d	.	1dd	2f
.	1A	.	.	1e
.	.	.	2cc#i	.
=177	=177	=177	=177	=177
1.G	0r	0d	1dd	2d
.	.	.	.	1g
.	.	.	1r	.
2D	.	.	.	2f
=178	=178	=178	=178	=178
1G	1r	1e	1b	1g
[1F	1c	[1f	1a	2r
.	.	.	.	2a
=179	=179	=179	=179	=179
2F]	1.c	1f]	1a	2.cc
4E	.	.	.	.
4D	.	.	.	4dd
2C	.	2e	[1a	2ee
2D	2B-X	2d	.	[2ff
=180	=180	=180	=180	=180
1F	1A	1.c	2a]	2ff]
.	.	.	2f	4ee
.	.	.	.	4dd
1E	1G	.	1g	1ee
.	.	2B	.	.
=181	=181	=181	=181	=181
0D	2.A	1.d	0f	1ff
.	8GL	.	.	.
.	8AJ	.	.	.
.	2B	.	.	1dd
.	2A	2c	.	.
=182	=182	=182	=182	=182
1GG	1G	1B	2g	1dd
.	.	.	1g	.
1r	1A	1A	.	[1cc
.	.	.	2f#i	.
=183	=183	=183	=183	=183
1r	0G	0d	0g	2cc]
.	.	.	.	4b
.	.	.	.	4a
1GG	.	.	.	1b
=184	=184	=184	=184	=184
0C	0G	1.c	1.e	[0cc
.	.	2d	2f	.
=185	=185	=185	=185	=185
1C	1r	1e	2g	1cc]
.	.	.	2.a	.
1D	1d	1f	.	1a
.	.	.	4g	.
.	.	.	4f	.
.	.	.	4e	.
=186	=186	=186	=186	=186
1G	1B	1g	1d	1b
1A	[1A	2f	1c	1cc
.	.	2e	.	.
=187	=187	=187	=187	=187
1D	2A]	1d	1f	1dd
.	2B	.	.	.
1A	2c	1c	1e	[1ee
.	2A	.	.	.
=188	=188	=188	=188	=188
1G	1B	1d	1g	2ee]
.	.	.	.	2dd
1D	1A	1f	[1a	[1dd
=189	=189	=189	=189	=189
0A	0c	0e	0a]	2dd]
.	.	.	.	4cc#i
.	.	.	.	4b
.	.	.	.	1cc#i
=190	=190	=190	=190	=190
[0Dl	0A	[0dl	[0al	[0ddl
=191	=191	=191	=191	=191
00D]	00Al	00d]	00a]	00dd]
==	==	==	==	==
*-	*-	*-	*-	*-
!!!system-decoration: [*]
!!!RDF**kern: i = editorial accidental
!!!RDF**kern: l = terminal long
!!!ENC: Benjamin Ory
!!!END: 2021/5/21
!!!EED: Benjamin Ory
!!!EEV: 2021/05/21
!!!YEC: Copyright 2021 Benjamin Ory, All Rights Reserved
!!!ONB: Translated from MusicXML on 2021/05/21
